Papirus/64x64/apps/bandcamp.svg

<?xml version="1.0" encoding="UTF-8" standalone="no"?>
<svg xmlns="http://www.w3.org/2000/svg" height="64" width="64" version="1">
 <rect style="opacity:.2;fill:#000000" transform="matrix(0,-1,-1,0,0,0)" rx="2.8" ry="2.8" height="56" width="56" y="-60" x="-61"/>
 <rect ry="2.8" style="fill:#5d5d5d" rx="2.8" transform="matrix(0,-1,-1,0,0,0)" height="56" width="56" y="-60" x="-60"/>
 <path style="opacity:.2;fill:#000000" d="m12 21v24h6v-.52734a9 9 0 0 0 3 .527 9 9 0 0 0 9 -9 9 9 0 0 0 -9 -9 9 9 0 0 0 -3 .527v-6.527h-6zm32 0a12 12 0 0 0 -12 12 12 12 0 0 0 12 12 12 12 0 0 0 10.375 -6h-10.375a6 6 0 0 1 -6 -6 6 6 0 0 1 6 -6h10.379a12 12 0 0 0 -10.379 -6zm-23 12a3 3 0 0 1 3 3 3 3 0 0 1 -3 3 3 3 0 0 1 -3 -3 3 3 0 0 1 3 -3z"/>
 <rect style="fill:#74bed2" height="24" width="6" y="20" x="12"/>
 <path style="fill:#74bed2" d="m21 26a9 9 0 0 0 -9 9 9 9 0 0 0 9 9 9 9 0 0 0 9 -9 9 9 0 0 0 -9 -9zm0 6a3 3 0 0 1 3 3 3 3 0 0 1 -3 3 3 3 0 0 1 -3 -3 3 3 0 0 1 3 -3z"/>
 <path style="fill:#74bed2" d="m44 20a12 12 0 0 0 -12 12 12 12 0 0 0 12 12 12 12 0 0 0 10.374 -6h-10.374a6 6 0 0 1 -6 -6 6 6 0 0 1 6 -6h10.38a12 12 0 0 0 -10.38 -6z"/>
 <path style="opacity:.1;fill:#ffffff" d="m6.8008 4c-1.5512 0-2.8008 1.2496-2.8008 2.8008v1c0-1.5512 1.2496-2.8008 2.8008-2.8008h50.398c1.551 0 2.801 1.2496 2.801 2.8008v-1c0-1.5512-1.25-2.8008-2.801-2.8008h-50.398z"/>
</svg>

<?xml version="1.0" encoding="UTF-8" standalone="no"?>
<svg xmlns="http://www.w3.org/2000/svg" version="1" width="64" height="64">
 <rect ry="2.8" rx="2.8" transform="matrix(0,-1,-1,0,0,0)" height="56" width="56" y="-60" x="-61" style="opacity:0.2;fill:#000000;fill-opacity:1"/>
 <rect style="fill:#5d5d5d;fill-opacity:1" x="-60" y="-60" width="56" height="56" transform="matrix(0,-1,-1,0,0,0)" rx="2.8" ry="2.8"/>
 <path d="m 12,21 0,24 6,0 0,-0.527344 A 9,9 0 0 0 21,45 9,9 0 0 0 30,36 9,9 0 0 0 21,27 9,9 0 0 0 18,27.527344 L 18,21 12,21 Z m 32,0 A 12,12 0 0 0 32,33 12,12 0 0 0 44,45 12,12 0 0 0 54.375,39 L 44,39 a 6,6 0 0 1 -6,-6 6,6 0 0 1 6,-6 l 10.378906,0 A 12,12 0 0 0 44,21 Z M 21,33 a 3,3 0 0 1 3,3 3,3 0 0 1 -3,3 3,3 0 0 1 -3,-3 3,3 0 0 1 3,-3 z" style="opacity:0.2;fill:#000000;fill-opacity:1"/>
 <rect x="9.6" y="9.58" width="44.8" height="44.8" style="color:#bebebe;fill:none"/>
 <rect y="20" x="12" height="24" width="6" style="opacity:1;fill:#74bed2;fill-opacity:1"/>
 <path d="m 21,26 a 9,9 0 0 0 -9,9 9,9 0 0 0 9,9 9,9 0 0 0 9,-9 9,9 0 0 0 -9,-9 z m 0,6 a 3,3 0 0 1 3,3 3,3 0 0 1 -3,3 3,3 0 0 1 -3,-3 3,3 0 0 1 3,-3 z" style="opacity:1;fill:#74bed2;fill-opacity:1"/>
 <path d="M 44,20 A 12,12 0 0 0 32,32 12,12 0 0 0 44,44 12,12 0 0 0 54.374024,38 L 44,38 a 6,6 0 0 1 -6,-6 6,6 0 0 1 6,-6 l 10.379882,0 A 12,12 0 0 0 44,20 Z" style="opacity:1;fill:#74bed2;fill-opacity:1"/>
 <path style="opacity:0.1;fill:#ffffff;fill-opacity:1" d="M 6.8007812 4 C 5.2495812 4 4 5.2495812 4 6.8007812 L 4 7.8007812 C 4 6.2495813 5.2495812 5 6.8007812 5 L 57.199219 5 C 58.750419 5 60 6.2495812 60 7.8007812 L 60 6.8007812 C 60 5.2495813 58.750419 4 57.199219 4 L 6.8007812 4 z"/>
</svg>
